proprietary/assets/icons/infrastructuur-en-transport/takel-met-container.svg

<svg height="64" viewBox="0 0 64 64" width="64" xmlns="http://www.w3.org/2000/svg"><path d="m0 0h64v64h-64z" fill="none"/><path d="m60 39v-4c0-.5523-.4477-1-1-1h-4c-.5229 0-.9391.4057-.9833.9171l-15.8086-10.3882c.4418-1.715.0504-3.45-.6597-4.7282-.8907-1.6034-2.2554-2.8851-3.04-3.9114-.1749-.2288-.263-.5691-.3094-.8893h1.801c.5523 0 1-.4478 1-1v-5c0-.5523-.4477-1-1-1h-1v-6h-2v6h-2v-6h-2v6h-1c-.5523 0-1 .4477-1 1v5c0 .5522.4477 1 1 1h1.9447c-.0244 1.1314.3381 2.1875 1.0422 3.0496.8658 1.06 1.7513 2.0103 2.4021 2.8983.2063.2816.3495.6188.4294.9709-1.6287-.519-3.4198-.3199-4.9189.5881-.4458-.5926-.8778-1.2168-1.4018-1.946-.3646-.5074-1.1479-.2759-1.1902.3537-.0549.8187-.035 2.0059.1791 3.1583l-16.5033 10.8442c-.0442-.5114-.4604-.9171-.9833-.9171h-4c-.5523 0-1 .4477-1 1v4c0 .5522.4477 1 1 1v16c-.5523 0-1 .4477-1 1v4c0 .5522.4477 1 1 1h4c.5523 0 1-.4478 1-1h44c0 .5522.4477 1 1 1h4c.5523 0 1-.4478 1-1v-4c0-.5523-.4477-1-1-1v-16c.5523 0 1-.4478 1-1zm-47 17h-2v-16h2zm8 0h-2v-16h2zm8 0h-2v-16h2zm8 0h-2v-16h2zm8 0h-2v-16h2zm-29.681-21 12.3568-8.1191c2.0197 2.558 5.492 2.5156 7.6908 1.3318-.7242-.881-1.7843-2.0281-3.3115-3.3909.0181-.4448 1.1295.0037 1.6542.3361 1.1897.7536 4.8551 3.1943 5.1276 3.3734l9.8444 6.4687zm37.681 21h-2v-16h2z"/></svg>

<?xml version="1.0" encoding="utf-8"?>
<!-- Generator: Adobe Illustrator 19.1.0, SVG Export Plug-In . SVG Version: 6.00 Build 0)  -->
<svg version="1.2" baseProfile="tiny" xmlns="http://www.w3.org/2000/svg" xmlns:xlink="http://www.w3.org/1999/xlink" x="0px"
	 y="0px" width="64px" height="64px" viewBox="0 0 64 64" xml:space="preserve">
<g id="_x36_4px_Box">
	<rect fill="none" width="64" height="64"/>
</g>
<g id="Icon">
	<g>
		<path d="M60,39v-4c0-0.5523-0.4477-1-1-1h-4c-0.5229,0-0.9391,0.4057-0.9833,0.9171L38.2081,24.5289
			c0.4418-1.715,0.0504-3.45-0.6597-4.7282c-0.8907-1.6034-2.2554-2.8851-3.04-3.9114c-0.1749-0.2288-0.263-0.5691-0.3094-0.8893H36
			c0.5523,0,1-0.4478,1-1V9c0-0.5523-0.4477-1-1-1h-1V2h-2v6h-2V2h-2v6h-1c-0.5523,0-1,0.4477-1,1v5c0,0.5522,0.4477,1,1,1h1.9447
			c-0.0244,1.1314,0.3381,2.1875,1.0422,3.0496c0.8658,1.06,1.7513,2.0103,2.4021,2.8983c0.2063,0.2816,0.3495,0.6188,0.4294,0.9709
			c-1.6287-0.519-3.4198-0.3199-4.9189,0.5881c-0.4458-0.5926-0.8778-1.2168-1.4018-1.946
			c-0.3646-0.5074-1.1479-0.2759-1.1902,0.3537c-0.0549,0.8187-0.035,2.0059,0.1791,3.1583L9.9833,34.9171
			C9.9391,34.4057,9.5229,34,9,34H5c-0.5523,0-1,0.4477-1,1v4c0,0.5522,0.4477,1,1,1v16c-0.5523,0-1,0.4477-1,1v4
			c0,0.5522,0.4477,1,1,1h4c0.5523,0,1-0.4478,1-1h44c0,0.5522,0.4477,1,1,1h4c0.5523,0,1-0.4478,1-1v-4c0-0.5523-0.4477-1-1-1V40
			C59.5523,40,60,39.5522,60,39z M13,56h-2V40h2V56z M21,56h-2V40h2V56z M29,56h-2V40h2V56z M37,56h-2V40h2V56z M45,56h-2V40h2V56z
			 M15.319,35l12.3568-8.1191c2.0197,2.558,5.492,2.5156,7.6908,1.3318c-0.7242-0.881-1.7843-2.0281-3.3115-3.3909
			c0.0181-0.4448,1.1295,0.0037,1.6542,0.3361c1.1897,0.7536,4.8551,3.1943,5.1276,3.3734L48.6813,35H15.319z M53,56h-2V40h2V56z"/>
	</g>
</g>
</svg>
